assets/targett.svg

<svg fill="none" height="62" viewBox="0 0 62 62" width="62" xmlns="http://www.w3.org/2000/svg"><path d="m62.0208 12.3383c-.1953-.5742-.6901-.9796-1.2913-1.0576l-4.5689-.596c.7057-1.30843.5075-2.98009-.5956-4.08318-.6523-.65277-1.5193-1.01179-2.4417-1.01179-.001 0-.0019 0-.0024 0-.5406.00047-1.0614.12487-1.5321.35855l-.596-4.57129c-.0785-.601685-.4839-1.096466-1.0577-1.2918246-.5742-.1948854-1.1972-.0501405-1.6262.3788906l-6.5136 6.513514c-.3576.35761-.5231.86895-.4427 1.36799l1.0539 6.55794-.3013.3023c-4.5368-3.4975-10.0674-5.3934-15.8903-5.3934-5.4724 0-10.7111 1.6754-15.1495 4.8456-.4087.2919-.5033.8595-.2114 1.2682.2918.4087.8595.5033 1.2682.2115 4.128-2.9489 9.0016-4.5075 14.0927-4.5075 5.4701 0 10.5224 1.8197 14.5857 4.884l-3.6901 3.7023c-3.0926-2.1546-6.8489-3.4204-10.8956-3.4204-10.537 0-19.10963 8.5726-19.10963 19.1101 0 10.5371 8.57263 19.1096 19.10963 19.1096 10.5371 0 19.1097-8.5725 19.1097-19.1096 0-4.0008-1.237-7.7169-3.3467-10.7892l3.6953-3.708c3.024 4.0486 4.8172 9.0669 4.8172 14.4972 0 13.3856-10.8899 24.2755-24.2755 24.2755s-24.27551-10.8899-24.27551-24.2755c0-5.9861 2.19719-11.7357 6.18714-16.1901.3349-.3737.30321-.9489-.07048-1.2838-.37416-.3349-.94888-.3032-1.28378.0705-4.28937 4.7884-6.651176 10.9689-6.651176 17.4034 0 6.97 2.714206 13.5228 7.642626 18.4512 4.92838 4.9284 11.48118 7.6426 18.45118 7.6426s13.5228-2.7142 18.4512-7.6426 7.6426-11.4812 7.6426-18.4512c0-5.7874-1.8736-11.2858-5.33-15.8065l.2309-.2318 6.5508 1.053c.0833.0132.1666.0198.2498.0198.4153 0 .8207-.1646 1.1187-.4626l1.3983-1.3982c.3552-.3553.3552-.9305 0-1.2857-.3553-.3548-.9305-.3548-1.2857 0l-1.3122 1.3121-5.1115-.8216 5.9483-5.9483 5.2487.6845-.7886.7885c-.3547.3553-.3547.9305 0 1.2857.3553.3548.9309.3548 1.2857 0l1.1305-1.1305c.4286-.429.5738-1.052.3784-1.6263zm-12.7687-10.24657.6849 5.24865-5.9487 5.94822-.8217-5.11144zm-5.7458 33.81447c0 9.5342-7.7567 17.2913-17.2914 17.2913s-17.29133-7.7571-17.29133-17.2913c0-9.5347 7.75663-17.2913 17.29133-17.2913 3.5458 0 6.8447 1.0728 9.591 2.9105l-3.7737 3.7865c-1.7271-.9526-3.7095-1.4966-5.8173-1.4966-6.6668 0-12.0904 5.4241-12.0904 12.0909 0 6.6663 5.4236 12.0905 12.0904 12.0905s12.0905-5.4242 12.0905-12.0905c0-2.052-.5156-3.9847-1.421-5.6791l3.7866-3.7993c1.7918 2.7241 2.8353 5.9813 2.8353 9.4784zm-18.9815 1.8216c.6523.6523 1.5198 1.0113 2.4422 1.0113h.0024c.9233-.0004 1.7909-.3609 2.4432-1.0151l1.2885-1.2927c-.2611 2.2445-2.1731 3.9923-4.4862 3.9923-2.4909 0-4.5173-2.0265-4.5173-4.5174 0-2.4086 1.8939-4.3825 4.2709-4.5107l-1.447 1.4517c-1.3424 1.3467-1.341 3.5358.0033 4.8806zm-4.6455-1.8216c0 3.4933 2.8423 6.3357 6.3356 6.3357s6.3357-2.842 6.3357-6.3357c0-.4148-.0416-.8193-.1183-1.2119l3.0993-3.1096c.6125 1.3145.956 2.7785.956 4.3215 0 5.664-4.6082 10.2722-10.2727 10.2722-5.6644 0-10.2721-4.6082-10.2721-10.2722 0-5.6644 4.6077-10.2726 10.2721-10.2726 1.6026 0 3.1196.3704 4.4724 1.0279l-3.0599 3.0699c-.4541-.1046-.9267-.1609-1.4125-.1609-3.4933 0-6.3356 2.842-6.3356 6.3357zm8.2457.534c-.3089.3099-.72.4806-1.157.4806-.0005 0-.001 0-.001 0-.437 0-.8476-.1698-1.1565-.4787-.6362-.6366-.6372-1.673-.0014-2.3107l26.1562-26.24278c.3089-.30983.7195-.4806 1.1566-.48107h.0014c.4366 0 .8472.17029 1.1561.47917.6366.63669.6376 1.67308.0014 2.31068z" fill="#4f86d9"/></svg>

<svg width="62" height="62" viewBox="0 0 62 62" fill="none" xmlns="http://www.w3.org/2000/svg">

<path d="M62.0208 12.3383C61.8255 11.7641 61.3307 11.3587 60.7295 11.2807L56.1606 10.6847C56.8663 9.37627 56.6681 7.70461 55.565 6.60152C54.9127 5.94875 54.0457 5.58973 53.1233 5.58973C53.1223 5.58973 53.1214 5.58973 53.1209 5.58973C52.5803 5.5902 52.0595 5.7146 51.5888 5.94828L50.9928 1.37699C50.9143 0.775305 50.5089 0.280524 49.9351 0.0851654C49.3609 -0.10972 48.7379 0.0350249 48.3089 0.464056L41.7953 6.97757C41.4377 7.33518 41.2722 7.84652 41.3526 8.34556L42.4065 14.9035L42.1052 15.2058C37.5684 11.7083 32.0378 9.8124 26.2149 9.8124C20.7425 9.8124 15.5038 11.4878 11.0654 14.658C10.6567 14.9499 10.5621 15.5175 10.854 15.9262C11.1458 16.3349 11.7135 16.4295 12.1222 16.1377C16.2502 13.1888 21.1238 11.6302 26.2149 11.6302C31.685 11.6302 36.7373 13.4499 40.8006 16.5142L37.1105 20.2165C34.0179 18.0619 30.2616 16.7961 26.2149 16.7961C15.6779 16.7961 7.10527 25.3687 7.10527 35.9062C7.10527 46.4433 15.6779 55.0158 26.2149 55.0158C36.752 55.0158 45.3246 46.4433 45.3246 35.9062C45.3246 31.9054 44.0876 28.1893 41.9779 25.117L45.6732 21.409C48.6972 25.4576 50.4904 30.4759 50.4904 35.9062C50.4904 49.2918 39.6005 60.1817 26.2149 60.1817C12.8293 60.1817 1.93939 49.2918 1.93939 35.9062C1.93939 29.9201 4.13658 24.1705 8.12653 19.7161C8.46143 19.3424 8.42974 18.7672 8.05605 18.4323C7.68189 18.0974 7.10717 18.1291 6.77227 18.5028C2.4829 23.2912 0.121094 29.4717 0.121094 35.9062C0.121094 42.8762 2.8353 49.429 7.76372 54.3574C12.6921 59.2858 19.2449 62 26.2149 62C33.1849 62 39.7377 59.2858 44.6661 54.3574C49.5945 49.429 52.3087 42.8762 52.3087 35.9062C52.3087 30.1188 50.4351 24.6204 46.9787 20.0997L47.2096 19.8679L53.7604 20.9209C53.8437 20.9341 53.927 20.9407 54.0102 20.9407C54.4255 20.9407 54.8309 20.7761 55.1289 20.4781L56.5272 19.0799C56.8824 18.7246 56.8824 18.1494 56.5272 17.7942C56.1719 17.4394 55.5967 17.4394 55.2415 17.7942L53.9293 19.1063L48.8178 18.2847L54.7661 12.3364L60.0148 13.0209L59.2262 13.8094C58.8715 14.1647 58.8715 14.7399 59.2262 15.0951C59.5815 15.4499 60.1571 15.4499 60.5119 15.0951L61.6424 13.9646C62.071 13.5356 62.2162 12.9126 62.0208 12.3383ZM49.2521 2.09173L49.937 7.34038L43.9883 13.2886L43.1666 8.17716L49.2521 2.09173ZM43.5063 35.9062C43.5063 45.4404 35.7496 53.1975 26.2149 53.1975C16.6802 53.1975 8.92357 45.4404 8.92357 35.9062C8.92357 26.3715 16.6802 18.6149 26.2149 18.6149C29.7607 18.6149 33.0596 19.6877 35.8059 21.5254L32.0322 25.3119C30.3051 24.3593 28.3227 23.8153 26.2149 23.8153C19.5481 23.8153 14.1245 29.2394 14.1245 35.9062C14.1245 42.5725 19.5481 47.9967 26.2149 47.9967C32.8817 47.9967 38.3054 42.5725 38.3054 35.9062C38.3054 33.8542 37.7898 31.9215 36.8844 30.2271L40.671 26.4278C42.4628 29.1519 43.5063 32.4091 43.5063 35.9062ZM24.5248 37.7278C25.1771 38.3801 26.0446 38.7391 26.967 38.7391H26.9694C27.8927 38.7387 28.7603 38.3782 29.4126 37.724L30.7011 36.4313C30.44 38.6758 28.528 40.4236 26.2149 40.4236C23.724 40.4236 21.6976 38.3971 21.6976 35.9062C21.6976 33.4976 23.5915 31.5237 25.9685 31.3955L24.5215 32.8472C23.1791 34.1939 23.1805 36.383 24.5248 37.7278ZM19.8793 35.9062C19.8793 39.3995 22.7216 42.2419 26.2149 42.2419C29.7082 42.2419 32.5506 39.3999 32.5506 35.9062C32.5506 35.4914 32.509 35.0869 32.4323 34.6943L35.5316 31.5847C36.1441 32.8992 36.4876 34.3632 36.4876 35.9062C36.4876 41.5702 31.8794 46.1784 26.2149 46.1784C20.5505 46.1784 15.9428 41.5702 15.9428 35.9062C15.9428 30.2418 20.5505 25.6336 26.2149 25.6336C27.8175 25.6336 29.3345 26.004 30.6873 26.6615L27.6274 29.7314C27.1733 29.6268 26.7007 29.5705 26.2149 29.5705C22.7216 29.5705 19.8793 32.4125 19.8793 35.9062ZM28.125 36.4402C27.8161 36.7501 27.405 36.9208 26.968 36.9208C26.9675 36.9208 26.967 36.9208 26.967 36.9208C26.53 36.9208 26.1194 36.751 25.8105 36.4421C25.1743 35.8055 25.1733 34.7691 25.8091 34.1314L51.9653 7.88862C52.2742 7.57879 52.6848 7.40802 53.1219 7.40755H53.1233C53.5599 7.40755 53.9705 7.57784 54.2794 7.88672C54.916 8.52341 54.917 9.5598 54.2808 10.1974L28.125 36.4402Z" fill="#4F86D9"/>

</svg>
